chrome/browser/resources/chromeos/switch_access/icons/textSelectionEnd.svg

<!-- Copyright 2019 The Chromium Authors. All rights reserved.
     Use of this source code is governed by a BSD-style license that can be
     found in the LICENSE file. -->
<svg height="20" viewBox="0 0 20 20" width="20" xmlns="http://www.w3.org/2000/svg"><path d="m13 5h-2v-2h6v2h-2v10h2v2h-6v-2h2zm-4-2v2h-2v-2zm-4 0v2h-2v-2zm0 4v2h-2v-2zm0 4v2h-2v-2zm0 4v2h-2v-2zm4 0v2h-2v-2z" fill="#E8EAED" fill-rule="evenodd"/></svg>

<svg height="20" viewBox="0 0 20 20" width="20" xmlns="http://www.w3.org/2000/svg"><path d="M13 5h-2V3h6v2h-2v10h2v2h-6v-2h2zM9 3v2H7V3zM5 3v2H3V3zm0 4v2H3V7zm0 4v2H3v-2zm0 4v2H3v-2zm4 0v2H7v-2z" fill="#E8EAED" fill-rule="evenodd"/></svg>
